outputs/icons/editor/bold_sharp.svg

<svg xmlns="http://www.w3.org/2000/svg" width="1200" height="1200" fill="none"><g clip-path="url(#a)"><path fill="#000" d="M780 539.5C828.5 506 862.5 451 862.5 400c0-113-87.5-200-200-200H350v700h352c104.5 0 185.5-85 185.5-189.5 0-76-43-141-107.5-171M500 325h150c41.5 0 75 33.5 75 75s-33.5 75-75 75H500zm175 450H500V625h175c41.5 0 75 33.5 75 75s-33.5 75-75 75"/></g><defs><clipPath id="a"><path fill="#fff" d="M0 0h1200v1200H0z"/></clipPath></defs></svg>

<svg width="1200" height="1200" viewBox="0 0 1200 1200" fill="none" xmlns="http://www.w3.org/2000/svg"><g clip-path="url(#clip0_125_1483)"><path d="M780 539.5C828.5 506 862.5 451 862.5 400C862.5 287 775 200 662.5 200H350V900H702C806.5 900 887.5 815 887.5 710.5C887.5 634.5 844.5 569.5 780 539.5ZM500 325H650C691.5 325 725 358.5 725 400C725 441.5 691.5 475 650 475H500V325ZM675 775H500V625H675C716.5 625 750 658.5 750 700C750 741.5 716.5 775 675 775Z" fill="#1D1E23"/></g><defs><clipPath id="clip0_125_1483"><path width="24" fill="white" d="M0 0H1200V1200H0V0z"/></clipPath></defs></svg>
